32x32/status/tablettrusted.svg

<svg xmlns="http://www.w3.org/2000/svg" width="32" height="32" version="1">
 <path fill="#8e8e8e" d="m29 23.75v-15.5c0-0.6925-0.5798-1.25-1.3-1.25h-23.4c-0.7202 0-1.3 0.5575-1.3 1.25v15.5c0 0.6925 0.5798 1.25 1.3 1.25h23.4c0.7202 0 1.3-0.5575 1.3-1.25z"/>
 <path style="opacity:0.5" d="m27 23v-14h-22v14z"/>
 <path fill="#fff" style="opacity:0.2" d="m4.3009 7c-0.7202 0-1.3008 0.5575-1.3008 1.25v1c0-0.6925 0.5806-1.25 1.3008-1.25h23.398c0.72 0 1.301 0.5575 1.301 1.25v-1c0-0.6925-0.581-1.25-1.301-1.25z"/>
 <path opacity=".2" d="m3.0001 23.75v1c0 0.692 0.5806 1.25 1.3008 1.25h23.398c0.72 0 1.301-0.558 1.301-1.25v-1c0 0.692-0.581 1.25-1.301 1.25h-23.398c-0.7204 0-1.301-0.558-1.301-1.25z"/>
</svg>

<svg xmlns="http://www.w3.org/2000/svg" width="32" height="32" version="1"><path fill="#8e8e8e" d="M29 23.75V8.25C29 7.557 28.42 7 27.7 7H4.3C3.58 7 3 7.557 3 8.25v15.5c0 .693.58 1.25 1.3 1.25h23.4c.72 0 1.3-.557 1.3-1.25z"/><path style="opacity:.5" d="M27 23V9H5v14z"/><path fill="#fff" style="opacity:.2" d="M4.3 7C3.58 7 3 7.557 3 8.25v1C3 8.557 3.58 8 4.3 8H27.7c.72 0 1.3.557 1.3 1.25v-1C29 7.557 28.42 7 27.7 7z"/><path opacity=".2" d="M3 23.75v1c0 .692.58 1.25 1.3 1.25H27.7c.72 0 1.3-.558 1.3-1.25v-1c0 .692-.58 1.25-1.3 1.25H4.3C3.58 25 3 24.442 3 23.75z"/></svg>
